X:1
T:Title
%%score { ( 1 3 ) | 2 }
L:1/8
M:6/8
K:Bb
V:1 treble nm="Grand Piano"
V:3 treble 
V:2 bass 
V:1
 z3 z2[Q:1/4=87] [DF] | [DF]2 [DB] [DB]2 [Dc] | [EB]2 [EA] [EA]2 [EA] | G2 G A2 G | %4
[M:5/8] [DF]-[DF]- [DF]3 |[M:1/8] [DF] |[M:3/4] [DF]2 [DB] [DB]2 [Ec] | %7
[M:7/8] [Fd]2 [FB] [Ge]3 [Ge] |[M:3/4] d2 B c2 c |[M:5/8] [DB]-[DB]- [DB]3 |[M:1/8] [DF] | %11
[M:3/4] [DF]2 [Fd] [Fd]2 [=E_d] | [Fd]4- [Fd][B,FB] | [EGc]2 [EGc] [EGB]2 [B,EG] | %14
[M:5/8] [GB]-[GB]- [GB]3 |[M:1/8] G |[M:3/4] [DF]2 [DB] [DB]2 [Ec] |[M:7/8] [Fd]2 [FB] [Ge]3 [Ge] | %18
[M:3/4] d2 B c2 c |[M:5/8] [DB]-[DB]- [DB]3 |] %20
V:2
 z3 z2 [B,,B,] | [B,,B,]2 [B,,F,] [B,,F,]2 [B,,F,] | [C,F,]2 [C,F,] [C,F,]2 [C,F,] | %3
 [F,A,E]2 [F,A,E] [F,CE]2 [F,CE] |[M:5/8] [B,,B,]-[B,,B,]- [B,,B,]3 |[M:1/8] [B,,B,] | %6
[M:3/4] [B,,B,]2 [B,,F,] [B,,F,]2 [B,,B,] |[M:7/8] [B,,B,]2 [D,B,] [E,B,]3 [E,B,] | %8
[M:3/4] [F,B,F]2 [F,B,D] [F,A,E]2 [F,A,E] |[M:5/8] [B,,B,]-[B,,B,]- [B,,B,]3 |[M:1/8] [B,,B,] | %11
[M:3/4] [B,,B,]2 [B,,B,] B,2 B, | B,2 B, B,2 D, | E,2 E, E,2 E, |[M:5/8] E,2 E, E,2 | %15
[M:1/8] [E,B,E] |[M:3/4] [B,,B,]2 [B,,F,] [B,,F,]2 [B,,B,] | %17
[M:7/8] [B,,B,]2 [D,B,] [E,B,]3 [E,B,] |[M:3/4] [F,B,F]2 [F,B,D] [F,A,E]2 [F,A,E] | %19
[M:5/8] [B,,B,]-[B,,B,]- [B,,B,]3 |] %20
V:3
 x6 | x6 | x6 | x6 |[M:5/8] x5 |[M:1/8] x |[M:3/4] x6 |[M:7/8] x7 |[M:3/4] x6 |[M:5/8] x5 | %10
[M:1/8] x |[M:3/4] x6 | x6 | x6 |[M:5/8] B,2 B, B,2 |[M:1/8] x |[M:3/4] x6 |[M:7/8] x7 | %18
[M:3/4] x6 |[M:5/8] x5 |] %20

